svg/color/intuon.svg

<svg width="40" height="40" viewBox="0 0 40 40" fill="none" xmlns="http://www.w3.org/2000/svg">
<g clip-path="url(#clip0_821_3999)">
<path d="M20 0C31.0457 0 40 8.9543 40 20C40 31.0457 31.0457 40 20 40C8.95431 40 7.90517e-06 31.0457 0 20C6.58765e-07 8.95431 8.95431 1.97595e-06 20 0Z" fill="#D3E2FF"/>
<path d="M26 6C30.4183 6 34 9.58172 34 14V26C34 30.4183 30.4183 34 26 34H14C9.58172 34 6 30.4183 6 26V14C6 9.58172 9.58172 6 14 6H26Z" fill="#236CFF"/>
<g clip-path="url(#clip1_821_3999)">
<path d="M20.2666 20.3167C20.2666 21.295 21.0782 22.0108 22.1091 22.0108C23.1399 22.0108 23.9524 21.295 23.9524 20.3167V18.0667H22.9541V20.2C22.9541 20.7275 22.5874 21.0833 22.1066 21.0833C21.6257 21.0833 21.2591 20.73 21.2591 20.2V18.0667H20.2607L20.2674 20.3158L20.2666 20.3167ZM26.6199 18.9675H27.8107V21.9367H28.8091V18.9667H29.9999V18.0667H26.6199V18.9683V18.9675ZM25.9749 18.0667H24.9766V21.9375H25.9749V18.0658V18.0667ZM16.2349 18.9675H17.4266V21.9367H18.4241V18.9667H19.6141V18.0667H16.2349V18.9683V18.9675ZM10.9982 18.0667H9.99991V21.9375H10.9982V18.0658V18.0667ZM15.7091 19.6833C15.7091 18.705 14.8974 17.99 13.8657 17.99C12.8341 17.99 12.0224 18.705 12.0224 19.6833V21.9375H13.0207V19.8042C13.0207 19.2767 13.3874 18.9208 13.8682 18.9208C14.3491 18.9208 14.7166 19.275 14.7166 19.8042V21.9375H15.7141L15.7091 19.6833Z" fill="white"/>
</g>
</g>
<defs>
<clipPath id="clip0_821_3999">
<rect width="40" height="40" fill="white"/>
</clipPath>
<clipPath id="clip1_821_3999">
<rect width="20" height="20" fill="white" transform="translate(10 10)"/>
</clipPath>
</defs>
</svg>

<svg xmlns="http://www.w3.org/2000/svg" width="40" height="40" fill="none" viewBox="0 0 40 40"><g clip-path="url(#intuon_svg-a)"><path fill="#D3E2FF" d="M20 0c11.046 0 20 8.954 20 20s-8.954 20-20 20S0 31.046 0 20 8.954 0 20 0"/><path fill="#236CFF" d="M26 6a8 8 0 0 1 8 8v12a8 8 0 0 1-8 8H14a8 8 0 0 1-8-8V14a8 8 0 0 1 8-8z"/><g clip-path="url(#intuon_svg-b)"><path fill="#fff" d="M20.267 20.317c0 .978.811 1.694 1.842 1.694 1.03 0 1.843-.716 1.843-1.694v-2.25h-.998V20.2c0 .527-.367.883-.847.883-.481 0-.848-.353-.848-.883v-2.133h-.998l.006 2.249m6.353-1.35h1.19v2.97h1v-2.97H30v-.9h-3.38zm-.645-.9h-.998v3.87h.998zm-9.74.9h1.192v2.97h.997v-2.97h1.19v-.9h-3.38zm-5.237-.9H10v3.87h.998zm4.711 1.616c0-.978-.812-1.693-1.843-1.693-1.032 0-1.844.715-1.844 1.693v2.255h.999v-2.134c0-.527.366-.883.847-.883s.849.354.849.883v2.134h.997z"/></g></g><defs><clipPath id="intuon_svg-a"><path fill="#fff" d="M0 0h40v40H0z"/></clipPath><clipPath id="intuon_svg-b"><path fill="#fff" d="M10 10h20v20H10z"/></clipPath></defs></svg>
